img/ready-320.svg

<svg width="196" height="24" viewBox="0 0 196 24" fill="none" xmlns="http://www.w3.org/2000/svg">
<rect opacity="0.1" width="196" height="24" rx="12" fill="#36B37E"/>
<path d="M33.5436 11.0527L33.1676 12.9941H35.0133V14.1426H32.942L32.3952 17H31.1784L31.7252 14.1426H30.0299L29.483 17H28.2936L28.8131 14.1426H27.1041V12.9941H29.0387L29.4284 11.0527H27.6237V9.9043H29.6266L30.1735 7.01953H31.4039L30.8571 9.9043H32.5797L33.1266 7.01953H34.3161L33.7692 9.9043H35.4918V11.0527H33.5436ZM30.2418 12.9941H31.9508L32.3405 11.0527H30.6315L30.2418 12.9941ZM42.4235 11.6543H43.5582C44.3193 11.6543 44.8707 11.513 45.2125 11.2305C45.5543 10.9479 45.7252 10.5286 45.7252 9.97266C45.7252 9.40755 45.5407 9.00195 45.1715 8.75586C44.8024 8.50977 44.2464 8.38672 43.5036 8.38672H42.4235V11.6543ZM42.4235 13.0078V17H40.7897V7.00586H43.6129C44.9026 7.00586 45.8574 7.2474 46.4772 7.73047C47.097 8.21354 47.4069 8.94271 47.4069 9.91797C47.4069 11.1621 46.7597 12.0485 45.4655 12.5771L48.2887 17H46.4293L44.0368 13.0078H42.4235ZM55.3981 17H49.7448V7.00586H55.3981V8.38672H51.3786V11.1074H55.1452V12.4746H51.3786V15.6123H55.3981V17ZM63.7653 17L62.7672 14.2246H58.9459L57.9684 17H56.2457L59.985 6.96484H61.7623L65.5016 17H63.7653ZM62.3366 12.8164L61.4 10.0957C61.3317 9.91341 61.236 9.6263 61.1129 9.23438C60.9944 8.84245 60.9124 8.55534 60.8668 8.37305C60.7438 8.93359 60.5638 9.54655 60.3268 10.2119L59.4245 12.8164H62.3366ZM74.9489 11.9072C74.9489 13.557 74.4909 14.8193 73.5748 15.6943C72.6588 16.5648 71.3395 17 69.6168 17H66.8209V7.00586H69.9108C71.5013 7.00586 72.7386 7.43424 73.6227 8.29102C74.5068 9.14779 74.9489 10.3532 74.9489 11.9072ZM73.2262 11.9619C73.2262 9.56934 72.1074 8.37305 69.8698 8.37305H68.4547V15.626H69.6168C72.0231 15.626 73.2262 14.4046 73.2262 11.9619ZM79.9254 11.5654L82.2907 7.00586H84.068L80.7389 13.124V17H79.0983V13.1787L75.7829 7.00586H77.5602L79.9254 11.5654ZM92.4762 17H90.8424V8.40723H87.903V7.00586H95.4157V8.40723H92.4762V17ZM105.827 11.9893C105.827 13.6162 105.419 14.8809 104.603 15.7832C103.792 16.6855 102.641 17.1367 101.151 17.1367C99.6426 17.1367 98.4827 16.6901 97.6715 15.7969C96.8649 14.8991 96.4616 13.6253 96.4616 11.9756C96.4616 10.3258 96.8672 9.05892 97.6784 8.1748C98.4941 7.29069 99.6562 6.84863 101.165 6.84863C102.65 6.84863 103.799 7.29753 104.61 8.19531C105.421 9.0931 105.827 10.3577 105.827 11.9893ZM98.1979 11.9893C98.1979 13.2197 98.4463 14.154 98.943 14.792C99.4398 15.4255 100.176 15.7422 101.151 15.7422C102.122 15.7422 102.853 15.4277 103.345 14.7988C103.842 14.1699 104.09 13.2334 104.09 11.9893C104.09 10.7633 103.844 9.83366 103.352 9.2002C102.865 8.56673 102.135 8.25 101.165 8.25C100.185 8.25 99.4443 8.56673 98.943 9.2002C98.4463 9.83366 98.1979 10.7633 98.1979 11.9893ZM111.61 7.00586H114.577C115.953 7.00586 116.947 7.20638 117.557 7.60742C118.173 8.00846 118.48 8.64193 118.48 9.50781C118.48 10.0911 118.33 10.5765 118.029 10.9639C117.728 11.3512 117.295 11.5951 116.73 11.6953V11.7637C117.432 11.8958 117.947 12.1579 118.275 12.5498C118.608 12.9372 118.774 13.4635 118.774 14.1289C118.774 15.0267 118.46 15.7308 117.831 16.2412C117.206 16.7471 116.336 17 115.219 17H111.61V7.00586ZM113.244 11.1348H114.816C115.5 11.1348 115.999 11.0277 116.313 10.8135C116.628 10.5947 116.785 10.2256 116.785 9.70605C116.785 9.23665 116.614 8.89714 116.272 8.6875C115.935 8.47786 115.397 8.37305 114.659 8.37305H113.244V11.1348ZM113.244 12.4609V15.626H114.98C115.664 15.626 116.179 15.4961 116.525 15.2363C116.876 14.972 117.051 14.5573 117.051 13.9922C117.051 13.4727 116.874 13.0876 116.518 12.8369C116.163 12.5863 115.623 12.4609 114.898 12.4609H113.244ZM126.506 17H120.852V7.00586H126.506V8.38672H122.486V11.1074H126.253V12.4746H122.486V15.6123H126.506V17ZM136.561 8.26367C135.622 8.26367 134.884 8.59635 134.346 9.26172C133.809 9.92708 133.54 10.8454 133.54 12.0166C133.54 13.2425 133.797 14.1699 134.312 14.7988C134.832 15.4277 135.581 15.7422 136.561 15.7422C136.985 15.7422 137.395 15.7012 137.792 15.6191C138.188 15.5326 138.601 15.4232 139.029 15.291V16.6924C138.245 16.9886 137.356 17.1367 136.363 17.1367C134.9 17.1367 133.777 16.6947 132.993 15.8105C132.209 14.9219 131.817 13.6527 131.817 12.0029C131.817 10.9639 132.006 10.0547 132.384 9.27539C132.767 8.49609 133.319 7.89909 134.039 7.48438C134.759 7.06966 135.604 6.8623 136.575 6.8623C137.596 6.8623 138.539 7.0765 139.405 7.50488L138.817 8.86523C138.48 8.70573 138.122 8.56673 137.744 8.44824C137.37 8.3252 136.976 8.26367 136.561 8.26367ZM150.055 11.9893C150.055 13.6162 149.647 14.8809 148.832 15.7832C148.02 16.6855 146.87 17.1367 145.38 17.1367C143.871 17.1367 142.711 16.6901 141.9 15.7969C141.093 14.8991 140.69 13.6253 140.69 11.9756C140.69 10.3258 141.096 9.05892 141.907 8.1748C142.723 7.29069 143.885 6.84863 145.393 6.84863C146.879 6.84863 148.027 7.29753 148.839 8.19531C149.65 9.0931 150.055 10.3577 150.055 11.9893ZM142.426 11.9893C142.426 13.2197 142.675 14.154 143.172 14.792C143.668 15.4255 144.404 15.7422 145.38 15.7422C146.35 15.7422 147.082 15.4277 147.574 14.7988C148.071 14.1699 148.319 13.2334 148.319 11.9893C148.319 10.7633 148.073 9.83366 147.581 9.2002C147.093 8.56673 146.364 8.25 145.393 8.25C144.413 8.25 143.673 8.56673 143.172 9.2002C142.675 9.83366 142.426 10.7633 142.426 11.9893ZM161.075 11.9893C161.075 13.6162 160.667 14.8809 159.851 15.7832C159.04 16.6855 157.889 17.1367 156.399 17.1367C154.891 17.1367 153.731 16.6901 152.92 15.7969C152.113 14.8991 151.71 13.6253 151.71 11.9756C151.71 10.3258 152.115 9.05892 152.926 8.1748C153.742 7.29069 154.904 6.84863 156.413 6.84863C157.898 6.84863 159.047 7.29753 159.858 8.19531C160.669 9.0931 161.075 10.3577 161.075 11.9893ZM153.446 11.9893C153.446 13.2197 153.694 14.154 154.191 14.792C154.688 15.4255 155.424 15.7422 156.399 15.7422C157.37 15.7422 158.101 15.4277 158.593 14.7988C159.09 14.1699 159.339 13.2334 159.339 11.9893C159.339 10.7633 159.092 9.83366 158.6 9.2002C158.113 8.56673 157.383 8.25 156.413 8.25C155.433 8.25 154.692 8.56673 154.191 9.2002C153.694 9.83366 153.446 10.7633 153.446 11.9893ZM163.221 17V7.00586H164.855V15.5986H169.087V17H163.221Z" fill="#36B37E"/>
</svg>

<svg width="196" height="24" fill="none" xmlns="http://www.w3.org/2000/svg"><rect opacity=".1" width="196" height="24" rx="12" fill="#36B37E"/><path d="M33.544 11.053l-.376 1.941h1.845v1.149h-2.071L32.395 17h-1.217l.547-2.857H30.03L29.483 17h-1.19l.52-2.857h-1.709v-1.149h1.935l.39-1.941h-1.805V9.904h2.003l.547-2.884h1.23l-.547 2.884h1.723l.547-2.884h1.19l-.548 2.884h1.723v1.149h-1.948zm-3.302 1.941h1.709l.39-1.941h-1.71l-.39 1.941zm12.181-1.34h1.135c.761 0 1.313-.141 1.654-.424.342-.282.513-.701.513-1.257 0-.565-.184-.971-.553-1.217-.37-.246-.926-.37-1.668-.37h-1.08v3.268zm0 1.354V17H40.79V7.006h2.823c1.29 0 2.244.241 2.864.724.62.484.93 1.213.93 2.188 0 1.244-.647 2.13-1.941 2.66L48.288 17h-1.86l-2.392-3.992h-1.614zM55.398 17h-5.653V7.006h5.653v1.38h-4.02v2.721h3.767v1.368H51.38v3.137h4.02V17zm8.367 0l-.998-2.775h-3.821L57.968 17h-1.722l3.739-10.035h1.777L65.502 17h-1.737zm-1.428-4.184l-.937-2.72a20.663 20.663 0 01-.533-1.723c-.123.56-.303 1.174-.54 1.839l-.902 2.604h2.912zm12.612-.909c0 1.65-.458 2.912-1.374 3.787-.916.87-2.236 1.306-3.958 1.306H66.82V7.006h3.09c1.59 0 2.828.428 3.712 1.285.884.857 1.326 2.062 1.326 3.616zm-1.723.055c0-2.393-1.119-3.589-3.356-3.589h-1.415v7.253h1.162c2.406 0 3.61-1.221 3.61-3.664zm6.7-.397l2.365-4.56h1.777l-3.33 6.119V17h-1.64v-3.821l-3.315-6.173h1.777l2.365 4.56zM92.475 17h-1.634V8.407h-2.939V7.006h7.513v1.401h-2.94V17zm13.351-5.01c0 1.626-.408 2.89-1.224 3.793-.811.903-1.962 1.354-3.452 1.354-1.508 0-2.668-.447-3.48-1.34-.806-.898-1.21-2.172-1.21-3.821 0-1.65.406-2.917 1.217-3.801.816-.884 1.978-1.326 3.487-1.326 1.485 0 2.634.449 3.445 1.346.811.898 1.217 2.163 1.217 3.794zm-7.63 0c0 1.23.25 2.164.746 2.802.497.633 1.233.95 2.208.95.971 0 1.702-.314 2.194-.943.497-.63.745-1.566.745-2.81 0-1.226-.246-2.155-.738-2.789-.487-.633-1.217-.95-2.187-.95-.98 0-1.72.317-2.222.95-.497.634-.745 1.563-.745 2.79zm13.413-4.984h2.967c1.376 0 2.37.2 2.98.601.616.401.923 1.035.923 1.9 0 .584-.15 1.07-.451 1.457-.301.387-.734.631-1.299.731v.069c.702.132 1.217.394 1.545.786.333.387.499.913.499 1.579 0 .898-.314 1.602-.943 2.112-.625.506-1.495.759-2.612.759h-3.609V7.006zm1.634 4.129h1.572c.684 0 1.183-.107 1.497-.322.315-.218.472-.587.472-1.107 0-.47-.171-.809-.513-1.018-.337-.21-.875-.315-1.613-.315h-1.415v2.762zm0 1.326v3.165h1.736c.684 0 1.199-.13 1.545-.39.351-.264.526-.679.526-1.244 0-.52-.177-.904-.533-1.155-.355-.25-.895-.376-1.62-.376h-1.654zM126.506 17h-5.654V7.006h5.654v1.38h-4.02v2.721h3.767v1.368h-3.767v3.137h4.02V17zm10.055-8.736c-.939 0-1.677.332-2.215.998-.537.665-.806 1.583-.806 2.755 0 1.226.257 2.153.772 2.782.52.629 1.269.943 2.249.943.424 0 .834-.04 1.231-.123.396-.086.809-.196 1.237-.328v1.401c-.784.297-1.673.445-2.666.445-1.463 0-2.586-.442-3.37-1.327-.784-.888-1.176-2.157-1.176-3.807 0-1.04.189-1.948.567-2.728a4.097 4.097 0 011.655-1.79c.72-.415 1.565-.623 2.536-.623 1.021 0 1.964.215 2.83.643l-.588 1.36a8.33 8.33 0 00-1.073-.417 3.76 3.76 0 00-1.183-.184zm13.494 3.725c0 1.627-.408 2.892-1.223 3.794-.812.903-1.962 1.354-3.452 1.354-1.509 0-2.669-.447-3.48-1.34-.807-.898-1.21-2.172-1.21-3.821 0-1.65.406-2.917 1.217-3.801.816-.884 1.978-1.326 3.486-1.326 1.486 0 2.634.449 3.446 1.346.811.898 1.216 2.163 1.216 3.794zm-7.629 0c0 1.23.249 2.165.746 2.803.496.633 1.232.95 2.208.95.97 0 1.702-.314 2.194-.943.497-.63.745-1.566.745-2.81 0-1.226-.246-2.155-.738-2.789-.488-.633-1.217-.95-2.188-.95-.98 0-1.72.317-2.221.95-.497.634-.746 1.563-.746 2.79zm18.649 0c0 1.627-.408 2.892-1.224 3.794-.811.903-1.962 1.354-3.452 1.354-1.508 0-2.668-.447-3.479-1.34-.807-.898-1.21-2.172-1.21-3.821 0-1.65.405-2.917 1.216-3.801.816-.884 1.978-1.326 3.487-1.326 1.485 0 2.634.449 3.445 1.346.811.898 1.217 2.163 1.217 3.794zm-7.629 0c0 1.23.248 2.165.745 2.803.497.633 1.233.95 2.208.95.971 0 1.702-.314 2.194-.943.497-.63.746-1.566.746-2.81 0-1.226-.247-2.155-.739-2.789-.487-.633-1.217-.95-2.187-.95-.98 0-1.721.317-2.222.95-.497.634-.745 1.563-.745 2.79zM163.221 17V7.006h1.634v8.593h4.232V17h-5.866z" fill="#36B37E"/></svg>
